X:1
T:Chinquapin Hunting - A
M:C
L:1/8
R:Reel
N:AEae tuning
S:Bruce Molsky, based on the Norman Edmonds version
N:From a transcription by John Lamancusa, by permission. See http://www.mne.psu.edu/lamancusa/tunes.htm
Z:AK/Fiddler's Companion
K:A
"A"e3(e "D"fe)[Ed]f | "A"(ef)e(e "D"fe)[Ed]f | "A"e3(e "D"fe)(fg) | afaf e2e2 |\
M:2/4
L:1/8
(3cdc A2 :|
M:C
L:1/8
|:"A"A3B A2A2 | "D"(FE)DD (ED)F2 | "A"A3B A2 AF | "E"A,2 A,B, "A"C2E2 | 
|:"D"F2 {E}F3 F ED | "E"B,2 EB, "A"C2 EC | "D"F2 {E}F3 F ED | "E"B2 [EA]B, "A"C2 [EA]C|

